X:1
T:Min Ifuva Tröst, LM
T:Min Ifuva Tröst, LM
T:Albert Esaias Lindström (1853-1935)
T:Public Domain Courtesy of the Cyber Hymnal™
C:Albert Esaias Lindström (1853-1935)
Z:Public Domain
Z:Courtesy of the Cyber Hymnal™
%%score ( 1 2 ) 3
L:1/8
Q:1/4=110
M:4/4
K:Bb
V:1 treble 
V:2 treble 
V:3 bass 
V:1
 [DF]2 | [DB]3 [DF] [DA]2 [EG]2 | [DG]3 D [CE]2 [EG]2 | [Ec]3 [EB] [EA]2 [EG]2 | %4
 [EG]2 [CF]2 D2 [DF]2 | [Fd]3 [^Fc] [GB]2 [FA]2 | [Gc]3 [GB] [FA]2 [EG]2 | [DF]3 [DB] [Fd]2 [FB]2 | %8
 [EG]2 [EA]2 [FB]2 |] %9
V:2
 x2 | x8 | x3 D x4 | x8 | x4 D2 x2 | x8 | x8 | x8 | x6 |] %9
V:3
 [B,,B,]2 | [B,,F,]3 [B,,F,] [B,,^F,]2 [B,,G,]2 | [=B,,G,]3 [B,,G,] [C,G,]2 [_B,,G,]2 | %3
 [A,,F,]3 [G,,G,] [F,,A,]2 [G,,B,]2 | [A,,C]2 [A,,F,]2 [B,,F,]2 [B,,B,]2 | %5
 [B,,B,]3 [A,,C] [G,,D]2 [D,D]2 | [E,C]3 [=E,C] [F,C]2 ([G,B,][A,C]) | %7
 [B,D]3 [G,B,] [F,B,]2 [D,B,]2 | [E,B,]2 [C,C]2 [B,,D]2 |] %9

